assets/sonr-icons/question-circle.svg

<svg xmlns="http://www.w3.org/2000/svg" width="24" height="24" fill="none"><path fill="currentColor" d="M12 4a8 8 0 1 0 0 16 8 8 0 0 0 0-16M2 12C2 6.477 6.478 2 12 2s10 4.478 10 10-4.477 10-10 10S2 17.523 2 12"/><path fill="currentColor" d="M11.133 9.501a1.001 1.001 0 0 1-1.732-1.002A3 3 0 0 1 14.999 10c0 1.098-.674 1.994-1.5 2.5-.664.407-.25 1.5-1.502 1.5a1 1 0 0 1-.995-1.104c.028-.529.263-.959.521-1.272.271-.331.628-.6.9-.762 1.516-.902-.333-2.747-1.29-1.361M11.998 15a1 1 0 1 0 0 2 1 1 0 0 0 0-2"/></svg>

<svg xmlns="http://www.w3.org/2000/svg" width="24" height="24" fill="none" viewBox="0 0 24 24"><path fill="#000" d="M12 4C7.582 4 4 7.582 4 12C4 16.418 7.582 20 12 20C16.418 20 20 16.418 20 12C20 7.582 16.418 4 12 4ZM2 12C2 6.477 6.478 2 12 2C17.522 2 22 6.478 22 12C22 17.523 17.523 22 12 22C6.477 22 2 17.523 2 12Z"/><path fill="#000" d="M11.133 9.501C10.856 9.979 10.245 10.142 9.76597 9.866C9.28697 9.59 9.12497 8.978 9.40097 8.499C9.91897 7.605 10.887 7 11.999 7C13.656 7 14.999 8.343 14.999 10C14.999 11.098 14.325 11.994 13.499 12.5C12.835 12.907 13.249 14 11.997 14C11.445 14 10.997 13.552 10.997 13C10.997 12.965 10.999 12.93 11.002 12.896C11.03 12.367 11.265 11.937 11.523 11.624C11.794 11.293 12.151 11.024 12.423 10.862C13.939 9.96 12.09 8.115 11.133 9.501ZM11.998 15C11.446 15 10.998 15.448 10.998 16C10.998 16.552 11.446 17 11.998 17C12.55 17 12.998 16.552 12.998 16C12.998 15.448 12.55 15 11.998 15Z"/></svg>
